src/svgs/correct-answer.svg

<svg fill="none" height="388" viewBox="0 0 388 484" width="388" xmlns="http://www.w3.org/2000/svg" xmlns:xlink="http://www.w3.org/1999/xlink"><mask id="a" height="19" maskUnits="userSpaceOnUse" width="32" x="209" y="177"><path d="m240.909 186.424c.709-4.975-3.151-9.424-8.176-9.424h-14.967c-4.841 0-8.766 3.925-8.766 8.766 0 5.928 5.252 10.482 11.121 9.641l13.783-1.973c3.633-.521 6.487-3.377 7.005-7.01z" fill="#fff"/></mask><mask id="b" height="19" maskUnits="userSpaceOnUse" width="33" x="147" y="177"><path d="m147.343 186.424c-.709-4.975 3.151-9.424 8.176-9.424h14.967c4.841 0 8.766 3.925 8.766 8.766 0 5.928-5.252 10.482-11.121 9.641l-13.783-1.973c-3.633-.521-6.487-3.377-7.005-7.01z" fill="#fff"/></mask><mask id="c" height="31" maskUnits="userSpaceOnUse" width="70" x="159" y="237"><path d="m159 237h70v31h-70z" fill="#c4c4c4"/></mask><path d="m176 279h36v23h-36z" fill="#a48176"/><circle cx="262" cy="90" fill="#2b4570" r="50"/><path d="m262 126c0 22.091-17.909 40-40 40s-40-17.909-40-40 17.909-40 40-40 40 17.909 40 40z" fill="#e44a3c"/><path d="m117 157.5c0-42.25 34.25-76.5 76.5-76.5s76.5 34.25 76.5 76.5v23.5h-153z" fill="#2b4570"/><path d="m117 179c0-26.51 21.49-48 48-48h57c26.51 0 48 21.49 48 48v43c0 38.66-31.34 70-70 70h-13c-38.66 0-70-31.34-70-70z" fill="#c79889"/><g mask="url(#a)"><path d="m0 0h48.7695v33.3333h-48.7695z" fill="#fff" transform="matrix(-1 0 0 1 251.119 170.333)"/><ellipse fill="#271e1e" rx="9.97558" ry="10" transform="matrix(-1 0 0 1 223.409 184.776)"/></g><g mask="url(#b)"><path d="m137.133 170.333h48.7695v33.3333h-48.7695z" fill="#fff"/><ellipse cx="164.843" cy="184.776" fill="#271e1e" rx="9.97558" ry="10"/></g><circle cx="249" cy="222" fill="#e44a3c" fill-opacity=".25" r="10"/><circle cx="141" cy="222" fill="#e44a3c" fill-opacity=".24" r="10"/><g mask="url(#c)"><path d="m227.5 237c0 16.126-14.822 29.5-33.5 29.5s-33.5-13.374-33.5-29.5 14.822-29.5 33.5-29.5 33.5 13.374 33.5 29.5z" stroke="#000" stroke-opacity=".21" stroke-width="3"/></g><g stroke="#000"><circle cx="160" cy="187" r="21" stroke-width="2"/><circle cx="228" cy="187" r="21" stroke-width="2"/><path d="m182 186.5h24"/></g><path d="m77 337c0-19.33 15.67-35 35-35h164c19.33 0 35 15.67 35 35v42h-234z" fill="#c79889"/><path d="m77 350h234v90h-234z" fill="#2b4570"/><path d="m228.44 395.001c0-19.021-15.419-34.44-34.44-34.44s-34.44 15.419-34.44 34.44c0 19.02 15.419 34.44 34.44 34.44s34.44-15.42 34.44-34.44z" stroke="#2b4570"/><path d="m177.921 397.525-.007-.003-.007-.003c-3.878-1.574-6.463-3.171-7.846-4.763-1.35-1.579-2.037-3.551-2.037-5.954 0-3.013 1.074-5.469 3.226-7.409v-.001c2.172-1.961 5.06-2.965 8.72-2.965 3.871 0 6.906.998 9.166 2.941 2.12 1.823 3.25 4.231 3.372 7.275h-8.348c-.07-1.282-.393-2.34-1.034-3.109-.748-.898-1.847-1.305-3.189-1.305-1.13 0-2.1.356-2.864 1.093-.781.754-1.14 1.784-1.14 3.012 0 .993.45 1.852 1.261 2.561l.004.004.003.003c.407.343 1.053.734 1.902 1.173.858.443 1.955.951 3.289 1.522l.012.005.014.005c3.826 1.416 6.444 2.971 7.937 4.631l.005.006c1.493 1.617 2.259 3.736 2.259 6.409 0 3.07-1.143 5.504-3.436 7.355-2.307 1.863-5.36 2.819-9.213 2.819-2.579 0-4.83-.498-6.767-1.477-1.942-1.003-3.458-2.384-4.561-4.144-.983-1.6-1.517-3.308-1.608-5.13h7.889c.11 1.465.504 2.66 1.246 3.518l.003.003.003.003c.885.993 2.266 1.425 3.996 1.425 1.344 0 2.456-.303 3.235-1.006.789-.713 1.137-1.749 1.137-2.999 0-1.007-.496-1.884-1.359-2.626-.84-.762-2.629-1.718-5.263-2.869z" stroke="#2b4570"/><path d="m208.353 397.525.007-.003.007-.003c3.878-1.574 6.463-3.171 7.845-4.763 1.351-1.579 2.038-3.551 2.038-5.954 0-3.013-1.074-5.469-3.225-7.409l-.001-.001c-2.172-1.961-5.06-2.965-8.72-2.965-3.871 0-6.906.998-9.166 2.941-2.12 1.823-3.25 4.231-3.372 7.275h8.348c.07-1.282.394-2.34 1.034-3.109.748-.898 1.847-1.305 3.189-1.305 1.13 0 2.1.356 2.864 1.093.781.754 1.141 1.784 1.141 3.012 0 .993-.451 1.852-1.262 2.561l-.004.004-.003.003c-.407.343-1.053.734-1.902 1.173-.858.443-1.955.951-3.288 1.522l-.013.005-.014.005c-3.826 1.416-6.444 2.971-7.937 4.631l-.005.006c-1.493 1.617-2.259 3.736-2.259 6.409 0 3.07 1.143 5.504 3.437 7.355 2.306 1.863 5.359 2.819 9.212 2.819 2.579 0 4.83-.498 6.767-1.477 1.943-1.003 3.458-2.384 4.562-4.144.982-1.6 1.517-3.308 1.607-5.13h-7.889c-.11 1.465-.504 2.66-1.246 3.518l-.003.003-.003.003c-.885.993-2.266 1.425-3.996 1.425-1.344 0-2.456-.303-3.234-1.006-.79-.713-1.138-1.749-1.138-2.999 0-1.007.496-1.884 1.359-2.626.84-.762 2.629-1.718 5.263-2.869z" stroke="#2b4570"/><rect fill="#fff" height="108.689" rx="5" width="164.099" x="115.754" y="313"/><path d="m115.754 400.376h164.099v16.311c0 2.762-2.239 5-5 5h-154.099c-2.762 0-5-2.238-5-5z" fill="#9fd8cb"/><rect fill="#a56060" height="21.3115" rx="3" width="245.082" x="71" y="421.688"/></svg>

<svg class="correct-avatar" width="388" height="388" viewBox="0 0 388 484" fill="none" xmlns="http://www.w3.org/2000/svg">
<rect x="176" y="279" width="36" height="23" fill="#A48176"/>
<g class="correct-avatar__head">
    <circle cx="262" cy="90" r="50" fill="#2B4570" class="correct-avatar__head__pony-tail"/>
    <path d="M262 126C262 148.091 244.091 166 222 166C199.909 166 182 148.091 182 126C182 103.909 199.909 86 222 86C244.091 86 262 103.909 262 126Z" fill="#E44A3C" class="correct-avatar__head__pom-pom"/>
    <path d="M117 157.5C117 115.25 151.25 81 193.5 81C235.75 81 270 115.25 270 157.5V181H117V157.5Z" fill="#2B4570" class="correct-avatar__head__scalp"/>
    <path d="M117 179C117 152.49 138.49 131 165 131H222C248.51 131 270 152.49 270 179V222C270 260.66 238.66 292 200 292H187C148.34 292 117 260.66 117 222V179Z" fill="#C79889"/>
    <mask id="mask0" mask-type="alpha" maskUnits="userSpaceOnUse" x="209" y="177" width="32" height="19">
    <path d="M240.909 186.424C241.618 181.449 237.758 177 232.733 177H217.766C212.925 177 209 180.925 209 185.766C209 191.694 214.252 196.248 220.121 195.407L233.904 193.434C237.537 192.913 240.391 190.057 240.909 186.424Z" fill="white"/>
    </mask>
    <g mask="url(#mask0)">
    <rect width="48.7695" height="33.3333" transform="matrix(-1 0 0 1 251.119 170.333)" fill="white"/>
    <ellipse rx="9.97558" ry="10" transform="matrix(-1 0 0 1 223.409 184.776)" fill="#271E1E"/>
    </g>
    <mask id="mask1" mask-type="alpha" maskUnits="userSpaceOnUse" x="147" y="177" width="33" height="19">
    <path d="M147.343 186.424C146.634 181.449 150.494 177 155.519 177H170.486C175.327 177 179.252 180.925 179.252 185.766C179.252 191.694 174 196.248 168.131 195.407L154.348 193.434C150.715 192.913 147.861 190.057 147.343 186.424Z" fill="white"/>
    </mask>
    <g mask="url(#mask1)">
    <rect x="137.133" y="170.333" width="48.7695" height="33.3333" fill="white"/>
    <ellipse cx="164.843" cy="184.776" rx="9.97558" ry="10" fill="#271E1E"/>
    </g>
    <circle cx="249" cy="222" r="10" fill="#E44A3C" fill-opacity="0.25"/>
    <circle cx="141" cy="222" r="10" fill="#E44A3C" fill-opacity="0.24"/>
    <mask id="mask2" mask-type="alpha" maskUnits="userSpaceOnUse" x="159" y="237" width="70" height="31">
    <rect x="159" y="237" width="70" height="31" fill="#C4C4C4"/>
    </mask>
    <g mask="url(#mask2)">
    <path d="M227.5 237C227.5 253.126 212.678 266.5 194 266.5C175.322 266.5 160.5 253.126 160.5 237C160.5 220.874 175.322 207.5 194 207.5C212.678 207.5 227.5 220.874 227.5 237Z" stroke="black" stroke-opacity="0.21" stroke-width="3"/>
    </g>
    <g class="correct-avatar__head__glasses">
        <circle cx="160" cy="187" r="21" stroke="black" stroke-width="2"/>
        <circle cx="228" cy="187" r="21" stroke="black" stroke-width="2"/>
        <line x1="182" y1="186.5" x2="206" y2="186.5" stroke="black"/>
    </g>
</g>
<path d="M77 337C77 317.67 92.67 302 112 302H276C295.33 302 311 317.67 311 337V379H77V337Z" fill="#C79889"/>
<rect x="77" y="350" width="234" height="90" fill="#2B4570"/>
<path d="M228.44 395.001C228.44 375.98 213.021 360.561 194 360.561C174.979 360.561 159.56 375.98 159.56 395.001C159.56 414.021 174.979 429.441 194 429.441C213.021 429.441 228.44 414.021 228.44 395.001Z" stroke="#2B4570"/>
<path d="M177.921 397.525L177.914 397.522L177.907 397.519C174.029 395.945 171.444 394.348 170.061 392.756C168.711 391.177 168.024 389.205 168.024 386.802C168.024 383.789 169.098 381.333 171.25 379.393L171.25 379.392C173.422 377.431 176.31 376.427 179.97 376.427C183.841 376.427 186.876 377.425 189.136 379.368C191.256 381.191 192.386 383.599 192.508 386.643H184.16C184.09 385.361 183.767 384.303 183.126 383.534C182.378 382.636 181.279 382.229 179.937 382.229C178.807 382.229 177.837 382.585 177.073 383.322C176.292 384.076 175.933 385.106 175.933 386.334C175.933 387.327 176.383 388.186 177.194 388.895L177.198 388.899L177.201 388.902C177.608 389.245 178.254 389.636 179.103 390.075C179.961 390.518 181.058 391.026 182.392 391.597L182.404 391.602L182.418 391.607C186.244 393.023 188.862 394.578 190.355 396.238L190.36 396.244C191.853 397.861 192.619 399.98 192.619 402.653C192.619 405.723 191.476 408.157 189.183 410.008C186.876 411.871 183.823 412.827 179.97 412.827C177.391 412.827 175.14 412.329 173.203 411.35C171.261 410.347 169.745 408.966 168.642 407.206C167.659 405.606 167.125 403.898 167.034 402.076H174.923C175.033 403.541 175.427 404.736 176.169 405.594L176.172 405.597L176.175 405.6C177.06 406.593 178.441 407.025 180.171 407.025C181.515 407.025 182.627 406.722 183.406 406.019C184.195 405.306 184.543 404.27 184.543 403.02C184.543 402.013 184.047 401.136 183.184 400.394C182.344 399.632 180.555 398.676 177.921 397.525Z" stroke="#2B4570"/>
<path d="M208.353 397.525L208.36 397.522L208.367 397.519C212.245 395.945 214.83 394.348 216.212 392.756C217.563 391.177 218.25 389.205 218.25 386.802C218.25 383.789 217.176 381.333 215.025 379.393L215.024 379.392C212.852 377.431 209.964 376.427 206.304 376.427C202.433 376.427 199.398 377.425 197.138 379.368C195.018 381.191 193.888 383.599 193.766 386.643H202.114C202.184 385.361 202.508 384.303 203.148 383.534C203.896 382.636 204.995 382.229 206.337 382.229C207.467 382.229 208.437 382.585 209.201 383.322C209.982 384.076 210.342 385.106 210.342 386.334C210.342 387.327 209.891 388.186 209.08 388.895L209.076 388.899L209.073 388.902C208.666 389.245 208.02 389.636 207.171 390.075C206.313 390.518 205.216 391.026 203.883 391.597L203.87 391.602L203.856 391.607C200.03 393.023 197.412 394.578 195.919 396.238L195.914 396.244C194.421 397.861 193.655 399.98 193.655 402.653C193.655 405.723 194.798 408.157 197.092 410.008C199.398 411.871 202.451 412.827 206.304 412.827C208.883 412.827 211.134 412.329 213.071 411.35C215.014 410.347 216.529 408.966 217.633 407.206C218.615 405.606 219.15 403.898 219.24 402.076H211.351C211.241 403.541 210.847 404.736 210.105 405.594L210.102 405.597L210.099 405.6C209.214 406.593 207.833 407.025 206.103 407.025C204.759 407.025 203.647 406.722 202.869 406.019C202.079 405.306 201.731 404.27 201.731 403.02C201.731 402.013 202.227 401.136 203.09 400.394C203.93 399.632 205.719 398.676 208.353 397.525Z" stroke="#2B4570"/>
<rect x="115.754" y="313" width="164.099" height="108.689" rx="5" fill="white"/>
<path d="M115.754 400.376H279.853V416.687C279.853 419.449 277.614 421.687 274.853 421.687H120.754C117.992 421.687 115.754 419.449 115.754 416.687V400.376Z" fill="#9FD8CB"/>
<rect x="71" y="421.688" width="245.082" height="21.3115" rx="3" fill="#A56060"/>
</svg>
